X: 3102
Q:"Reel."
M: C
L: 1/8
K: A
|:\
vA2(Aa) cAec | A2(Aa) cAea |\
[1 A2(Aa) cAec | dBBc defa :|\
[2 A2(Aa) cABG | AB,B,C DEFG |]\
cAeA aAec | dBfB bBfa |]


